X: 113
T: Missa Pro fidelibus defunctis / Agnus Dei
N: Derived from Rue1024f-Missa_Pro_fidelibus_defunctis-Agnus.krn
C: Pierre de la Rue
%%abc-version 2.0
%%abcx-abcm2ps-target-version 5.9.1 (29 Sep 2008)
%%abc-creator hum2abc beta
%%abcx-conversion-date 2019/02/17 08:01:14
%%abc-edited-by Jesse Rodin
%%abc-edited-by Chris Gage 05-02-2013
%%abcx-initial-encoding-date 2013/08/01/
%%humdrum-veritas 1178371907
%%humdrum-veritas-data 1079652256
%%linebreak <none>
%%barnumbers 0
L: 1/4
M: 3/1
Q: 1/2=120
V: 1 clef=treble-8
V: 2 clef=bass
V: 3 clef=bass
V: 4 clef=bass
V: 5 clef=bass
K: F
[V:1] z12 | 
[V:2] A,,8B,,4 | 
[V:3] D,8D,4 | 
[V:4] D,,4F,,4G,,4 | 
[V:5] z12 | 
[V:1] A8B4 | 
[V:2] A,,2D,4C,2B,,4 | 
[V:3] D,12- | 
[V:4] A,,8z4 | 
[V:5] D,,4F,,4G,,4 | 
[V:1] A2d4c2B2A2- | 
[V:2] F,3G,B,2A,2F,4- | 
[V:3] D,12 | 
[V:4] F,,8F,,4 | 
[V:5] D,,12- | 
[V:1] A2F2G2B2A4 | 
[V:2] F,2A,4G,4^F,2 | 
[V:3] D,8D,4 | 
[V:4] F,,4B,,3C,D,4 | 
[V:5] D,,4z4D,,4 | 
[V:1] G8d4 | 
[V:2] G,8z4 | 
[V:3] B,,12 | 
[V:4] G,,8F,,4 | 
[V:5] _E,,8D,,4 | 
[V:1] e6c2c4 | 
[V:2] G,6E,2E,4 | 
[V:3] C,12- | 
[V:4] G,,12 | 
[V:5] C,,12- | 
[V:1] z2c4d2e2f2- | 
[V:2] z2E,4G,4A,2- | 
[V:3] C,12 | 
[V:4] z2G,,2A,,2B,,2C,2F,,2- | 
[V:5] C,,4z4z4 | 
[V:1] f2e2d2c2B3A | 
[V:2] A,2A,2B,3A,G,2F,2 | 
[V:3] D,12- | 
[V:4] F,,4G,,6B,,2 | 
[V:5] z12 | 
[V:1] G8z4 | 
[V:2] G,4z2G,2G,4 | 
[V:3] D,8z4 | 
[V:4] B,,3A,,G,,4z2G,2 | 
[V:5] z2G,,2G,,3F,,E,,2D,,2 | 
[V:1] z2g2g3fe2d2 | 
[V:2] E,2C,2G,8 | 
[V:3] z12 | 
[V:4] G,3F,E,2D,2C,3B,, | 
[V:5] C,,8z4 | 
[V:1] c3BA8 | 
[V:2] A,8E,4 | 
[V:3] C,12 | 
[V:4] A,,8A,,4 | 
[V:5] z2C,2C,3B,,A,,2G,,2 | 
[V:1] z4z2f2f3e | 
[V:2] A,8F,4- | 
[V:3] D,12- | 
[V:4] A,,4z2D,2D,3C, | 
[V:5] F,,3E,,D,,8 | 
[V:1] d2c2B3AG4- | 
[V:2] F,4G,4z4 | 
[V:3] D,4_E,8 | 
[V:4] B,,2A,,2G,,8- | 
[V:5] z12 | 
[V:1] G4c2c4=B2 | 
[V:2] G,4G,8 | 
[V:3] C,8D,4 | 
[V:4] G,,12- | 
[V:5] C,,8G,,4 | 
[V:1] c4f8 | 
[V:2] E,4D,2B,3A,F,2 | 
[V:3] C,4D,8 | 
[V:4] G,,4B,,8 | 
[V:5] C,,4B,,,8 | 
[V:1] e4d6c2 | 
[V:2] C4A,4B,4 | 
[V:3] C,4F,8 | 
[V:4] G,,4F,,4B,,4 | 
[V:5] C,,4D,,4B,,,4 | 
[V:1] c8=B4 | 
[V:2] z4G,8 | 
[V:3] E,4D,8 | 
[V:4] G,,4z4G,,4- | 
[V:5] C,,4G,,8 | 
[V:1] c12 ||  
[V:2] G,4E,8 ||  
[V:3] C,12 ||  
[V:4] G,,2G,,2G,,8 ||  
[V:5] C,,12 ||  
[V:1]  [K:F] [K:clef=treble-8][M:3/1]B8B4 | 
[V:2]  [K:F] [K:clef=bass][M:3/1]G,8G,4 | 
[V:3]  [K:F] [K:clef=bass][M:3/1]D,8D,4 | 
[V:4]  [K:F] [K:clef=bass][M:3/1]B,,8B,,4 | 
[V:5]  [K:F] [K:clef=bass][M:3/1]G,,8G,,4 | 
[V:1] B8B4- | 
[V:2] G,12- | 
[V:3] D,4B,,4D,4- | 
[V:4] G,,8G,,4- | 
[V:5] B,,4_E,,4B,,4- | 
[V:1] B4c8 | 
[V:2] G,4F,8 | 
[V:3] D,4C,8 | 
[V:4] G,,4A,,8 | 
[V:5] B,,4F,,8 | 
[V:1] B8z4 | 
[V:2] G,8G,4 | 
[V:3] D,8z4 | 
[V:4] G,,6A,,2B,,4 | 
[V:5] B,,8G,,4 | 
[V:1] z12 | 
[V:2] A,4B,6G,2 | 
[V:3] z12 | 
[V:4] C,6B,,2B,,4 | 
[V:5] F,,4G,,8 | 
[V:1] z12 | 
[V:2] A,8F,4 | 
[V:3] z12 | 
[V:4] C,4D,6C,2 | 
[V:5] F,,12- | 
[V:1] c8A4 | 
[V:2] F,12 | 
[V:3] C,12- | 
[V:4] C,4A,,8 | 
[V:5] F,,8F,,4 | 
[V:1] G4d8 | 
[V:2] z12 | 
[V:3] C,4D,8 | 
[V:4] C,6B,,2B,,4 | 
[V:5] E,,4D,,8 | 
[V:1] G8z4 | 
[V:2] G,8G,4 | 
[V:3] E,12 | 
[V:4] C,12 | 
[V:5] C,,8z4 | 
[V:1] c8B4 | 
[V:2] G,8G,4 | 
[V:3] C,8D,4 | 
[V:4] z12 | 
[V:5] C,8G,,4 | 
[V:1] c4d6c2 | 
[V:2] A,4B,6G,2 | 
[V:3] E,4F,6E,2 | 
[V:4] z12 | 
[V:5] C,4B,,8 | 
[V:1] c8B4 | 
[V:2] G,8G,4 | 
[V:3] E,8D,4 | 
[V:4] z4z4G,,4 | 
[V:5] C,4G,,8 | 
[V:1] c4d6c2 | 
[V:2] F,4B,8 | 
[V:3] C,4F,8 | 
[V:4] A,,4D,8 | 
[V:5] C,4B,,8 | 
[V:1] c4B6A2 | 
[V:2] A,4G,6F,2 | 
[V:3] E,4D,6C,2 | 
[V:4] A,,4B,,4G,,4 | 
[V:5] C,4G,,4B,,4 | 
[V:1] A12 ||  
[V:2] F,12 ||  
[V:3] C,12 ||  
[V:4] A,,12 ||  
[V:5] F,,12 ||  
[V:1]  [K:F] [K:clef=treble-8][M:3/1]z12 | 
[V:2]  [K:F] [K:clef=bass][M:3/1]A,,8B,,4 | 
[V:3]  [K:F] [K:clef=bass][M:3/1]D,8D,4 | 
[V:4]  [K:F] [K:clef=bass][M:3/1]D,,4F,,4G,,4 | 
[V:5]  [K:F] [K:clef=bass][M:3/1]z12 | 
[V:1] A8B4 | 
[V:2] A,,2D,4C,2B,,4 | 
[V:3] D,12- | 
[V:4] A,,8z4 | 
[V:5] D,,4F,,4G,,4 | 
[V:1] A2d4c2B2A2- | 
[V:2] F,3G,B,2A,2F,4- | 
[V:3] D,12 | 
[V:4] F,,8F,,4 | 
[V:5] D,,12- | 
[V:1] A2F2G2B2A4 | 
[V:2] F,2A,4G,4^F,2 | 
[V:3] D,8D,4 | 
[V:4] F,,4B,,3C,D,4 | 
[V:5] D,,4z4D,,4 | 
[V:1] G8d4 | 
[V:2] G,8z4 | 
[V:3] B,,12 | 
[V:4] G,,8F,,4 | 
[V:5] _E,,8D,,4 | 
[V:1] e6c2c4 | 
[V:2] G,6E,2E,4 | 
[V:3] C,12- | 
[V:4] G,,12 | 
[V:5] C,,12- | 
[V:1] z2c4d2e2f2- | 
[V:2] z2E,4G,4A,2- | 
[V:3] C,12 | 
[V:4] z2G,,2A,,2B,,2C,2F,,2- | 
[V:5] C,,4z4z4 | 
[V:1] f2e2d2c2B3A | 
[V:2] A,2A,2B,3A,G,2F,2 | 
[V:3] D,12- | 
[V:4] F,,4G,,6B,,2 | 
[V:5] z12 | 
[V:1] G8z4 | 
[V:2] G,4z2G,2G,4 | 
[V:3] D,8z4 | 
[V:4] B,,3A,,G,,4z2G,2 | 
[V:5] z2G,,2G,,3F,,E,,2D,,2 | 
[V:1] z2g2g3fe2d2 | 
[V:2] E,2C,2G,8 | 
[V:3] z12 | 
[V:4] G,3F,E,2D,2C,3B,, | 
[V:5] C,,8z4 | 
[V:1] c3BA8 | 
[V:2] A,8E,4 | 
[V:3] C,12 | 
[V:4] A,,8A,,4 | 
[V:5] z2C,2C,3B,,A,,2G,,2 | 
[V:1] z4z2f2f3e | 
[V:2] A,8F,4- | 
[V:3] D,12- | 
[V:4] A,,4z2D,2D,3C, | 
[V:5] F,,3E,,D,,8 | 
[V:1] d2c2B3AG4- | 
[V:2] F,4G,4z4 | 
[V:3] D,4_E,8 | 
[V:4] B,,2A,,2G,,8- | 
[V:5] z12 | 
[V:1] G4c2c4=B2 | 
[V:2] G,4G,8 | 
[V:3] C,8D,4 | 
[V:4] G,,12- | 
[V:5] C,,8G,,4 | 
[V:1] c4f8 | 
[V:2] E,4D,2B,3A,F,2 | 
[V:3] C,4D,8 | 
[V:4] G,,4B,,8 | 
[V:5] C,,4B,,,8 | 
[V:1] e4d6c2 | 
[V:2] C4A,4B,4 | 
[V:3] C,4F,8 | 
[V:4] G,,4F,,4B,,4 | 
[V:5] C,,4D,,4B,,,4 | 
[V:1] c8=B4 | 
[V:2] z4G,6G,2 | 
[V:3] E,4D,8 | 
[V:4] G,,4z4G,,2G,,2 | 
[V:5] C,,4G,,4G,,4 | 
[V:1] c12 |]  
[V:2] G,4E,8 |]  
[V:3] C,12 |]  
[V:4] G,,4G,,8 |]  
[V:5] C,,12 |]  



